material/.icons/material/flask-plus-outline.svg

<svg xmlns="http://www.w3.org/2000/svg" viewBox="0 0 24 24"><path d="M18 14h2v3h3v2h-3v3h-2v-3h-3v-2h3v-3M5 19c0 .55.45 1 1 1h7.34c.27.75.66 1.42 1.19 2H6c-1.66 0-3-1.34-3-3 0-.6.18-1.16.5-1.64L9 7.81V6c-.55 0-1-.45-1-1V4c0-1.1.9-2 2-2h4a2 2 0 012 2v1c0 .55-.45 1-1 1v1.81l2.5 4.37c-.64.17-1.26.45-1.81.82L13 8.35V4h-2v4.35L5.18 18.43c-.11.16-.18.36-.18.57m8-3l.58-.58c-.37.78-.58 1.66-.58 2.58H7.73l2.66-4.61L13 16m-.5-4c.28 0 .5.22.5.5s-.22.5-.5.5-.5-.22-.5-.5.22-.5.5-.5z"/></svg>

<?xml version="1.0" encoding="UTF-8"?><!DOCTYPE svg PUBLIC "-//W3C//DTD SVG 1.1//EN" "http://www.w3.org/Graphics/SVG/1.1/DTD/svg11.dtd"><svg xmlns="http://www.w3.org/2000/svg" xmlns:xlink="http://www.w3.org/1999/xlink" version="1.1" id="mdi-flask-plus-outline" width="24" height="24" viewBox="0 0 24 24"><path d="M18 14H20V17H23V19H20V22H18V19H15V17H18V14M5 19C5 19.55 5.45 20 6 20H13.34C13.61 20.75 14 21.42 14.53 22H6C4.34 22 3 20.66 3 19C3 18.4 3.18 17.84 3.5 17.36L9 7.81V6C8.45 6 8 5.55 8 5V4C8 2.9 8.9 2 10 2H14C15.11 2 16 2.9 16 4V5C16 5.55 15.55 6 15 6V7.81L17.5 12.18C16.86 12.35 16.24 12.63 15.69 13L13 8.35V4H11V8.35L5.18 18.43C5.07 18.59 5 18.79 5 19M13 16L13.58 15.42C13.21 16.2 13 17.08 13 18H7.73L10.39 13.39L13 16M12.5 12C12.78 12 13 12.22 13 12.5C13 12.78 12.78 13 12.5 13C12.22 13 12 12.78 12 12.5C12 12.22 12.22 12 12.5 12Z" /></svg>
